X: 328
T: Bulgareasca
R:
O:
Q: 1/4=160
B: German Goldenshteyn "Shpilt klezmorimlach klingen zoln di gesalach" New York 2003 v._ #_
Z: 2012 John Chambers <jc:trillian.mit.edu>
M: 2/4
L: 1/8
K: Em
zBef |\
g3f | a3g | (~g>f)f2- | fB ^de | f3e | g3f | (~f>e)e2- | eega |
b3a c'3b | (~b>a)a2- | afga | (~gf) (~fe) |[1 e4- | eBef :|[2 e4- | eb^ab |
|:\
g4- | gb^ab | f4- | f4 | fgab | c'bd'c' | b4- | bb^ab | e'4- | e'be'd' |
c'4- | c'abc' | (~ba) (~ag) | (~gf) (~fe) |[1 e4- | eb^ab :|[2 e4- | e2z2 |]
